Sources/FrostedUI/Resources/Icons.xcassets/bold24.imageset/bold-24.svg

<svg width="24" height="24" viewBox="0 0 24 24" fill="none" xmlns="http://www.w3.org/2000/svg" data-fui-icon="true">
  <path
    d="M13.252 3C15.8753 3 18.002 5.12664 18.002 7.75V8C18.002 9.48881 17.3161 10.8166 16.2441 11.6875C17.8723 12.4408 19.002 14.0881 19.002 16V16.25C19.002 18.8733 16.8753 21 14.252 21H6.74219C5.77569 21 4.99219 20.2165 4.99219 19.25V4.75C4.99219 3.78351 5.77568 3 6.74219 3H13.252ZM6.49219 19.25C6.49219 19.3881 6.60411 19.5 6.74219 19.5H14.252C16.0468 19.5 17.502 18.0449 17.502 16.25V16C17.502 14.2051 16.0468 12.75 14.252 12.75H6.49219V19.25ZM6.74219 4.5C6.60412 4.5 6.49219 4.61193 6.49219 4.75V11.25H13.252C15.0468 11.25 16.502 9.79489 16.502 8V7.75C16.502 5.95508 15.0468 4.5 13.252 4.5H6.74219Z"
    fill="currentColor"
  />
</svg>

<svg xmlns="http://www.w3.org/2000/svg" width="24" height="24" fill="none" data-fui-icon="true" viewBox="0 0 24 24"><path fill="currentColor" d="M13.252 3a4.75 4.75 0 0 1 4.75 4.75V8a4.74 4.74 0 0 1-1.758 3.688A4.75 4.75 0 0 1 19.002 16v.25a4.75 4.75 0 0 1-4.75 4.75h-7.51a1.75 1.75 0 0 1-1.75-1.75V4.75c0-.966.784-1.75 1.75-1.75zm-6.76 16.25c0 .138.112.25.25.25h7.51a3.25 3.25 0 0 0 3.25-3.25V16a3.25 3.25 0 0 0-3.25-3.25h-7.76zm.25-14.75a.25.25 0 0 0-.25.25v6.5h6.76A3.25 3.25 0 0 0 16.502 8v-.25a3.25 3.25 0 0 0-3.25-3.25z"/></svg>
